static/img/in-field/inputs-error-dark.svg

<svg width="468" height="95" viewBox="0 0 468 95" fill="none" xmlns="http://www.w3.org/2000/svg">
<rect x="2" y="2.66663" width="464" height="52" rx="2" fill="black"/>
<path d="M22.9717 37.6666H21.1348V23.5729H16.1934V21.9615H27.8916V23.5729H22.9717V37.6666ZM34.7803 25.6783C35.7829 25.6783 36.6423 25.9003 37.3584 26.3444C38.0745 26.7884 38.6224 27.4114 39.002 28.2135C39.3815 29.0084 39.5713 29.9394 39.5713 31.0065V32.1129H31.4395C31.4609 33.4951 31.8047 34.5478 32.4707 35.2711C33.1367 35.9944 34.0749 36.3561 35.2852 36.3561C36.0299 36.3561 36.6888 36.288 37.2617 36.152C37.8346 36.0159 38.429 35.8154 39.0449 35.5504V37.1188C38.4505 37.3837 37.8597 37.5771 37.2725 37.6989C36.6924 37.8206 36.0049 37.8815 35.21 37.8815C34.0785 37.8815 33.0902 37.6523 32.2451 37.194C31.4072 36.7285 30.7555 36.0481 30.29 35.153C29.8245 34.2578 29.5918 33.1621 29.5918 31.8658C29.5918 30.5983 29.8031 29.5026 30.2256 28.5787C30.6553 27.6477 31.2568 26.9316 32.0303 26.4303C32.8109 25.929 33.7275 25.6783 34.7803 25.6783ZM34.7588 27.1393C33.8063 27.1393 33.0472 27.4508 32.4814 28.0739C31.9157 28.6969 31.5791 29.567 31.4717 30.6842H37.7021C37.695 29.9824 37.584 29.3665 37.3691 28.8365C37.1615 28.2994 36.8428 27.8841 36.4131 27.5905C35.9834 27.2897 35.432 27.1393 34.7588 27.1393ZM45.6543 31.6403L41.583 25.8932H43.624L46.7285 30.4264L49.8223 25.8932H51.8418L47.7705 31.6403L52.0674 37.6666H50.0264L46.7285 32.8649L43.4092 37.6666H41.3896L45.6543 31.6403ZM58.4189 36.4205C58.7126 36.4205 59.0133 36.3955 59.3213 36.3453C59.6292 36.2952 59.8799 36.2343 60.0732 36.1627V37.5485C59.8656 37.6416 59.5755 37.7203 59.2031 37.7848C58.8379 37.8492 58.4798 37.8815 58.1289 37.8815C57.5059 37.8815 56.9401 37.774 56.4316 37.5592C55.9232 37.3372 55.515 36.9648 55.207 36.442C54.9062 35.9192 54.7559 35.1959 54.7559 34.2721V27.2897H53.0801V26.4196L54.7666 25.7213L55.4756 23.1647H56.5498V25.8932H59.998V27.2897H56.5498V34.2184C56.5498 34.956 56.7181 35.5074 57.0547 35.8727C57.3984 36.2379 57.8532 36.4205 58.4189 36.4205ZM68.9414 37.6666V21.9615H70.7676V37.6666H68.9414ZM80.6426 25.6783C82.0391 25.6783 83.0954 26.0221 83.8115 26.7096C84.5277 27.3899 84.8857 28.4856 84.8857 29.9967V37.6666H83.124V30.1149C83.124 29.1337 82.8984 28.3997 82.4473 27.9127C82.0033 27.4257 81.3193 27.1823 80.3955 27.1823C79.0921 27.1823 78.1755 27.5511 77.6455 28.2887C77.1156 29.0263 76.8506 30.097 76.8506 31.5006V37.6666H75.0674V25.8932H76.5068L76.7754 27.5905H76.8721C77.1227 27.1751 77.4414 26.8278 77.8281 26.5485C78.2148 26.262 78.6481 26.0472 79.1279 25.9039C79.6077 25.7535 80.1126 25.6783 80.6426 25.6783ZM94.3418 25.6783C95.8099 25.6783 96.9808 26.1832 97.8545 27.193C98.7282 28.2028 99.165 29.721 99.165 31.7477C99.165 33.0869 98.9645 34.2112 98.5635 35.1207C98.1624 36.0302 97.5967 36.7177 96.8662 37.1832C96.1429 37.6487 95.2871 37.8815 94.2988 37.8815C93.6758 37.8815 93.1279 37.7991 92.6553 37.6344C92.1826 37.4697 91.778 37.2477 91.4414 36.9684C91.1048 36.6891 90.8255 36.3847 90.6035 36.0553H90.4746C90.4961 36.3346 90.5212 36.6712 90.5498 37.0651C90.5856 37.4589 90.6035 37.8027 90.6035 38.0963V42.9303H88.8096V25.8932H90.2812L90.5176 27.6334H90.6035C90.8327 27.2753 91.112 26.9495 91.4414 26.6559C91.7708 26.3551 92.1719 26.1188 92.6445 25.9469C93.1243 25.7679 93.6901 25.6783 94.3418 25.6783ZM94.0303 27.1823C93.2139 27.1823 92.555 27.3398 92.0537 27.6549C91.5596 27.97 91.1979 28.4427 90.9688 29.0729C90.7396 29.6959 90.6178 30.4801 90.6035 31.4254V31.7692C90.6035 32.7646 90.7109 33.6061 90.9258 34.2936C91.1478 34.9811 91.5094 35.5039 92.0107 35.8619C92.5192 36.22 93.1995 36.399 94.0518 36.399C94.7822 36.399 95.391 36.2021 95.8779 35.8082C96.3649 35.4143 96.7266 34.8665 96.9629 34.1647C97.2064 33.4557 97.3281 32.6429 97.3281 31.7262C97.3281 30.3369 97.056 29.234 96.5117 28.4176C95.9746 27.594 95.1475 27.1823 94.0303 27.1823ZM112.252 25.8932V37.6666H110.791L110.533 36.0123H110.437C110.193 36.4205 109.878 36.7643 109.491 37.0436C109.104 37.3229 108.668 37.5306 108.181 37.6666C107.701 37.8099 107.189 37.8815 106.645 37.8815C105.714 37.8815 104.933 37.7311 104.303 37.4303C103.673 37.1295 103.196 36.664 102.874 36.0338C102.559 35.4036 102.401 34.5944 102.401 33.6061V25.8932H104.206V33.4772C104.206 34.4583 104.428 35.1923 104.872 35.6793C105.316 36.1591 105.993 36.399 106.902 36.399C107.776 36.399 108.471 36.2343 108.986 35.9049C109.509 35.5755 109.885 35.0921 110.114 34.4547C110.343 33.8102 110.458 33.0224 110.458 32.0914V25.8932H112.252ZM120.075 36.4205C120.369 36.4205 120.67 36.3955 120.978 36.3453C121.285 36.2952 121.536 36.2343 121.729 36.1627V37.5485C121.522 37.6416 121.232 37.7203 120.859 37.7848C120.494 37.8492 120.136 37.8815 119.785 37.8815C119.162 37.8815 118.596 37.774 118.088 37.5592C117.579 37.3372 117.171 36.9648 116.863 36.442C116.562 35.9192 116.412 35.1959 116.412 34.2721V27.2897H114.736V26.4196L116.423 25.7213L117.132 23.1647H118.206V25.8932H121.654V27.2897H118.206V34.2184C118.206 34.956 118.374 35.5074 118.711 35.8727C119.055 36.2379 119.509 36.4205 120.075 36.4205Z" fill="white"/>
<rect x="2" y="2.66663" width="464" height="52" rx="2" stroke="#DA212C" stroke-width="4"/>
<g clip-path="url(#clip0_7345_83056)">
<path d="M25.3875 66.7229H7.5C5.025 66.7229 3 68.7479 3 71.2229V89.1667C3 91.6417 5.025 93.6667 7.5 93.6667H25.3875C27.8625 93.6667 29.8875 91.6417 29.8875 89.1667V71.2229C29.8875 68.7479 27.9187 66.7229 25.3875 66.7229Z" fill="#DA212C"/>
<path d="M25.3875 68.6917C26.7937 68.6917 27.9187 69.8167 27.9187 71.2229V89.1667C27.9187 90.5729 26.7937 91.6979 25.3875 91.6979H7.5C6.09375 91.6979 4.96875 90.5729 4.96875 89.1667V71.2229C4.96875 69.8167 6.09375 68.6917 7.5 68.6917H25.3875ZM25.3875 66.7229H7.5C5.025 66.7229 3 68.7479 3 71.2229V89.1667C3 91.6417 5.025 93.6667 7.5 93.6667H25.3875C27.8625 93.6667 29.8875 91.6417 29.8875 89.1667V71.2229C29.8875 68.7479 27.9187 66.7229 25.3875 66.7229Z" fill="#9B1118"/>
<path d="M21.4499 83.5416L17.9624 80.1104L21.5062 76.6229L19.9874 75.1041L16.4999 78.6479L13.0124 75.1041L11.4937 76.6229L15.0374 80.1104L11.6062 83.5416L13.0687 85.0604L16.4999 81.6291L19.9312 85.0604L21.4499 83.5416Z" fill="white"/>
</g>
<path d="M39.1592 88.6666V72.9615H40.9854V88.6666H39.1592ZM53.3418 88.6666V81.0504C53.3418 80.0908 53.1234 79.3746 52.6865 78.902C52.2497 78.4293 51.5658 78.193 50.6348 78.193C49.403 78.193 48.5007 78.526 47.9277 79.192C47.3548 79.858 47.0684 80.9573 47.0684 82.4899V88.6666H45.2852V76.8932H46.7354L47.0254 78.5045H47.1113C47.4766 77.9244 47.9886 77.4768 48.6475 77.1617C49.3063 76.8395 50.0404 76.6783 50.8496 76.6783C52.2676 76.6783 53.3346 77.0221 54.0508 77.7096C54.7669 78.3899 55.125 79.4821 55.125 80.986V88.6666H53.3418ZM61.627 88.6666L57.1582 76.8932H59.0703L61.6055 83.8756C62.1784 85.5084 62.515 86.5683 62.6152 87.0553H62.7012C62.7799 86.6757 63.027 85.8916 63.4424 84.7028C63.8649 83.5068 64.8066 80.9036 66.2676 76.8932H68.1797L63.7109 88.6666H61.627ZM77.5605 88.6666L77.2061 86.9908H77.1201C76.5329 87.7285 75.9456 88.2298 75.3584 88.4948C74.7783 88.7526 74.0514 88.8815 73.1777 88.8815C72.0104 88.8815 71.0938 88.5807 70.4277 87.9791C69.7689 87.3776 69.4395 86.5218 69.4395 85.4117C69.4395 83.0341 71.3408 81.788 75.1436 81.6735L77.1416 81.609V80.8785C77.1416 79.9547 76.9411 79.2744 76.54 78.8375C76.1462 78.3935 75.5124 78.1715 74.6387 78.1715C73.6576 78.1715 72.5475 78.4723 71.3086 79.0739L70.7607 77.7096C71.3408 77.3945 71.9746 77.1474 72.6621 76.9684C73.3568 76.7893 74.0514 76.6998 74.7461 76.6998C76.1497 76.6998 77.1882 77.0114 77.8613 77.6344C78.5417 78.2574 78.8818 79.2565 78.8818 80.6315V88.6666H77.5605ZM73.5322 87.4098C74.6423 87.4098 75.5124 87.1054 76.1426 86.4967C76.7799 85.888 77.0986 85.0358 77.0986 83.9401V82.8766L75.3154 82.9518C73.8975 83.0019 72.8734 83.2239 72.2432 83.6178C71.6201 84.0045 71.3086 84.6097 71.3086 85.4332C71.3086 86.0778 71.502 86.5683 71.8887 86.9049C72.2826 87.2415 72.8304 87.4098 73.5322 87.4098ZM84.5996 88.6666H82.8164V71.9518H84.5996V88.6666ZM90.4141 88.6666H88.6309V76.8932H90.4141V88.6666ZM88.4805 73.7028C88.4805 73.2946 88.5807 72.9974 88.7812 72.8112C88.9818 72.6178 89.2324 72.5211 89.5332 72.5211C89.8197 72.5211 90.0667 72.6178 90.2744 72.8112C90.4821 73.0045 90.5859 73.3017 90.5859 73.7028C90.5859 74.1038 90.4821 74.4046 90.2744 74.6051C90.0667 74.7985 89.8197 74.8951 89.5332 74.8951C89.2324 74.8951 88.9818 74.7985 88.7812 74.6051C88.5807 74.4046 88.4805 74.1038 88.4805 73.7028ZM102.459 87.0875H102.362C101.539 88.2835 100.307 88.8815 98.667 88.8815C97.1273 88.8815 95.9277 88.3551 95.0684 87.3024C94.2161 86.2496 93.79 84.7529 93.79 82.8121C93.79 80.8714 94.2197 79.3639 95.0791 78.2897C95.9385 77.2155 97.1344 76.6783 98.667 76.6783C100.264 76.6783 101.489 77.2584 102.341 78.4186H102.48L102.405 77.5699L102.362 76.7428V71.9518H104.146V88.6666H102.695L102.459 87.0875ZM98.8926 87.3883C100.11 87.3883 100.991 87.0589 101.535 86.4C102.087 85.734 102.362 84.6634 102.362 83.1881V82.8121C102.362 81.1435 102.083 79.9547 101.524 79.2457C100.973 78.5296 100.089 78.1715 98.8711 78.1715C97.8255 78.1715 97.0234 78.5797 96.4648 79.3961C95.9134 80.2054 95.6377 81.3512 95.6377 82.8336C95.6377 84.3375 95.9134 85.4726 96.4648 86.2389C97.0163 87.0052 97.8255 87.3883 98.8926 87.3883ZM116.247 88.6666H114.421V72.9615H123.176V74.5836H116.247V80.3307H122.757V81.9528H116.247V88.6666ZM130.741 88.8815C129.001 88.8815 127.626 88.3515 126.616 87.2916C125.614 86.2317 125.112 84.7601 125.112 82.8766C125.112 80.9788 125.578 79.4713 126.509 78.3541C127.447 77.2369 128.704 76.6783 130.279 76.6783C131.755 76.6783 132.922 77.1653 133.781 78.1393C134.641 79.1061 135.07 80.3844 135.07 81.9742V83.1022H126.96C126.996 84.4843 127.343 85.5335 128.002 86.2496C128.668 86.9658 129.603 87.3239 130.806 87.3239C132.073 87.3239 133.326 87.0589 134.565 86.5289V88.1188C133.935 88.3909 133.337 88.5843 132.771 88.6989C132.213 88.8206 131.536 88.8815 130.741 88.8815ZM130.258 78.1715C129.312 78.1715 128.557 78.4795 127.991 79.0953C127.433 79.7112 127.103 80.5634 127.003 81.652H133.158C133.158 80.5276 132.908 79.6683 132.406 79.0739C131.905 78.4723 131.189 78.1715 130.258 78.1715ZM143.345 88.8815C141.604 88.8815 140.229 88.3515 139.22 87.2916C138.217 86.2317 137.716 84.7601 137.716 82.8766C137.716 80.9788 138.181 79.4713 139.112 78.3541C140.05 77.2369 141.307 76.6783 142.883 76.6783C144.358 76.6783 145.525 77.1653 146.385 78.1393C147.244 79.1061 147.674 80.3844 147.674 81.9742V83.1022H139.563C139.599 84.4843 139.947 85.5335 140.605 86.2496C141.271 86.9658 142.206 87.3239 143.409 87.3239C144.677 87.3239 145.93 87.0589 147.169 86.5289V88.1188C146.539 88.3909 145.941 88.5843 145.375 88.6989C144.816 88.8206 144.14 88.8815 143.345 88.8815ZM142.861 78.1715C141.916 78.1715 141.16 78.4795 140.595 79.0953C140.036 79.7112 139.707 80.5634 139.606 81.652H145.762C145.762 80.5276 145.511 79.6683 145.01 79.0739C144.508 78.4723 143.792 78.1715 142.861 78.1715ZM158.988 87.0875H158.892C158.068 88.2835 156.836 88.8815 155.196 88.8815C153.657 88.8815 152.457 88.3551 151.598 87.3024C150.745 86.2496 150.319 84.7529 150.319 82.8121C150.319 80.8714 150.749 79.3639 151.608 78.2897C152.468 77.2155 153.664 76.6783 155.196 76.6783C156.793 76.6783 158.018 77.2584 158.87 78.4186H159.01L158.935 77.5699L158.892 76.7428V71.9518H160.675V88.6666H159.225L158.988 87.0875ZM155.422 87.3883C156.639 87.3883 157.52 87.0589 158.064 86.4C158.616 85.734 158.892 84.6634 158.892 83.1881V82.8121C158.892 81.1435 158.612 79.9547 158.054 79.2457C157.502 78.5296 156.618 78.1715 155.4 78.1715C154.355 78.1715 153.553 78.5797 152.994 79.3961C152.443 80.2054 152.167 81.3512 152.167 82.8336C152.167 84.3375 152.443 85.4726 152.994 86.2389C153.546 87.0052 154.355 87.3883 155.422 87.3883ZM170.195 76.6998C171.742 76.6998 172.942 77.2298 173.794 78.2897C174.653 79.3424 175.083 80.8356 175.083 82.7692C175.083 84.7028 174.65 86.2067 173.783 87.2809C172.924 88.3479 171.728 88.8815 170.195 88.8815C169.429 88.8815 168.727 88.7418 168.09 88.4625C167.46 88.1761 166.93 87.7392 166.5 87.152H166.371L165.995 88.6666H164.717V71.9518H166.5V76.0123C166.5 76.9218 166.471 77.7382 166.414 78.4615H166.5C167.331 77.2871 168.562 76.6998 170.195 76.6998ZM169.938 78.193C168.72 78.193 167.843 78.5439 167.306 79.2457C166.769 79.9404 166.5 81.1149 166.5 82.7692C166.5 84.4235 166.776 85.6087 167.327 86.3248C167.879 87.0338 168.763 87.3883 169.98 87.3883C171.076 87.3883 171.893 86.9908 172.43 86.1959C172.967 85.3938 173.235 84.2444 173.235 82.7477C173.235 81.2151 172.967 80.0729 172.43 79.3209C171.893 78.569 171.062 78.193 169.938 78.193ZM185.699 88.6666L185.345 86.9908H185.259C184.672 87.7285 184.084 88.2298 183.497 88.4948C182.917 88.7526 182.19 88.8815 181.316 88.8815C180.149 88.8815 179.232 88.5807 178.566 87.9791C177.908 87.3776 177.578 86.5218 177.578 85.4117C177.578 83.0341 179.479 81.788 183.282 81.6735L185.28 81.609V80.8785C185.28 79.9547 185.08 79.2744 184.679 78.8375C184.285 78.3935 183.651 78.1715 182.777 78.1715C181.796 78.1715 180.686 78.4723 179.447 79.0739L178.899 77.7096C179.479 77.3945 180.113 77.1474 180.801 76.9684C181.495 76.7893 182.19 76.6998 182.885 76.6998C184.288 76.6998 185.327 77.0114 186 77.6344C186.68 78.2574 187.021 79.2565 187.021 80.6315V88.6666H185.699ZM181.671 87.4098C182.781 87.4098 183.651 87.1054 184.281 86.4967C184.919 85.888 185.237 85.0358 185.237 83.9401V82.8766L183.454 82.9518C182.036 83.0019 181.012 83.2239 180.382 83.6178C179.759 84.0045 179.447 84.6097 179.447 85.4332C179.447 86.0778 179.641 86.5683 180.027 86.9049C180.421 87.2415 180.969 87.4098 181.671 87.4098ZM195.66 88.8815C193.956 88.8815 192.634 88.3587 191.696 87.3131C190.765 86.2604 190.3 84.7744 190.3 82.8551C190.3 80.8857 190.772 79.3639 191.718 78.2897C192.67 77.2155 194.024 76.6783 195.778 76.6783C196.344 76.6783 196.91 76.7392 197.476 76.861C198.041 76.9827 198.485 77.1259 198.808 77.2906L198.26 78.8053C197.866 78.6477 197.436 78.5188 196.971 78.4186C196.505 78.3112 196.093 78.2574 195.735 78.2574C193.343 78.2574 192.147 79.7828 192.147 82.8336C192.147 84.2802 192.438 85.3903 193.018 86.1637C193.605 86.9371 194.471 87.3239 195.617 87.3239C196.598 87.3239 197.604 87.1126 198.636 86.6901V88.2692C197.848 88.6774 196.856 88.8815 195.66 88.8815ZM203.451 82.6403C203.759 82.2034 204.228 81.6305 204.858 80.9215L208.661 76.8932H210.777L206.008 81.9098L211.11 88.6666H208.951L204.794 83.1022L203.451 84.2623V88.6666H201.689V71.9518H203.451V80.8141C203.451 81.208 203.423 81.8167 203.365 82.6403H203.451Z" fill="white"/>
<defs>
<clipPath id="clip0_7345_83056">
<rect width="27" height="27" fill="white" transform="translate(3 66.6666)"/>
</clipPath>
</defs>
</svg>

<svg width="468" height="95" fill="none" xmlns="http://www.w3.org/2000/svg"><rect x="2" y="2.667" width="464" height="52" rx="2" fill="#000"/><path d="M22.972 37.667h-1.837V23.573h-4.942v-1.611h11.699v1.61h-4.92v14.095zM34.78 25.678c1.003 0 1.862.222 2.578.666.717.444 1.264 1.067 1.644 1.87.38.794.57 1.725.57 2.793v1.106h-8.133c.022 1.382.366 2.435 1.032 3.158.666.723 1.604 1.085 2.814 1.085.745 0 1.404-.068 1.977-.204a10.9 10.9 0 001.783-.602v1.569a8.688 8.688 0 01-1.773.58c-.58.122-1.267.183-2.062.183-1.132 0-2.12-.23-2.965-.688-.838-.466-1.49-1.146-1.955-2.041-.465-.895-.698-1.99-.698-3.287 0-1.268.211-2.363.634-3.287.43-.931 1.03-1.647 1.804-2.149.78-.501 1.697-.752 2.75-.752zm-.021 1.461c-.953 0-1.712.312-2.278.935-.565.623-.902 1.493-1.01 2.61h6.231c-.007-.702-.118-1.318-.333-1.848-.208-.537-.526-.952-.956-1.245-.43-.301-.981-.452-1.654-.452zm10.895 4.501l-4.071-5.747h2.041l3.104 4.533 3.094-4.533h2.02L47.77 31.64l4.297 6.027h-2.04l-3.299-4.802-3.319 4.802h-2.02l4.265-6.027zm12.765 4.78c.294 0 .594-.025.902-.075.308-.05.559-.11.752-.182v1.386c-.207.093-.498.171-.87.236a6.18 6.18 0 01-1.074.097 4.32 4.32 0 01-1.697-.323c-.509-.222-.917-.594-1.225-1.117-.3-.523-.451-1.246-.451-2.17V27.29H53.08v-.87l1.687-.699.709-2.556h1.074v2.728h3.448v1.397H56.55v6.928c0 .738.168 1.29.505 1.655.343.365.798.547 1.364.547zm10.522 1.247V21.96h1.827v15.706H68.94zm11.702-11.989c1.396 0 2.452.344 3.168 1.032.717.68 1.075 1.776 1.075 3.287v7.67h-1.762v-7.552c0-.981-.226-1.715-.677-2.202-.444-.487-1.128-.73-2.052-.73-1.303 0-2.22.368-2.75 1.106-.53.737-.794 1.808-.794 3.212v6.166h-1.784V25.893h1.44l.268 1.697h.097c.25-.415.57-.762.956-1.041.387-.287.82-.502 1.3-.645.48-.15.985-.226 1.515-.226zm13.699 0c1.468 0 2.639.505 3.513 1.515.873 1.01 1.31 2.528 1.31 4.555 0 1.339-.2 2.463-.602 3.373-.4.91-.966 1.597-1.697 2.062-.723.466-1.579.699-2.567.699-.623 0-1.171-.083-1.644-.248a3.878 3.878 0 01-1.214-.666 4.347 4.347 0 01-.838-.913h-.128l.075 1.01c.036.394.053.738.053 1.031v4.834H88.81V25.893h1.471l.237 1.74h.085c.23-.358.509-.683.838-.977.33-.3.73-.537 1.203-.71.48-.178 1.046-.268 1.698-.268zm-.312 1.504c-.816 0-1.475.158-1.976.473-.494.315-.856.788-1.085 1.418-.23.623-.351 1.407-.365 2.352v.344c0 .996.107 1.837.322 2.525.222.687.583 1.21 1.085 1.568.508.358 1.189.537 2.04.537.731 0 1.34-.197 1.827-.59.487-.395.849-.942 1.085-1.644.243-.71.365-1.522.365-2.439 0-1.39-.272-2.492-.816-3.308-.537-.824-1.365-1.236-2.482-1.236zm18.222-1.289v11.774h-1.461l-.258-1.655h-.096a3.427 3.427 0 01-.946 1.032 4.1 4.1 0 01-1.31.623c-.48.143-.992.215-1.536.215-.931 0-1.712-.15-2.342-.452a3.036 3.036 0 01-1.429-1.396c-.315-.63-.473-1.44-.473-2.428v-7.713h1.805v7.584c0 .981.222 1.715.666 2.202.444.48 1.121.72 2.03.72.874 0 1.569-.165 2.084-.494.523-.33.899-.813 1.128-1.45.229-.645.344-1.433.344-2.364v-6.198h1.794zm7.823 10.527c.294 0 .595-.025.903-.075.307-.05.558-.11.751-.182v1.386c-.207.093-.497.171-.87.236a6.174 6.174 0 01-1.074.097 4.317 4.317 0 01-1.697-.323c-.509-.222-.917-.594-1.225-1.117-.301-.523-.451-1.246-.451-2.17V27.29h-1.676v-.87l1.687-.699.709-2.556h1.074v2.728h3.448v1.397h-3.448v6.928c0 .738.168 1.29.505 1.655.344.365.798.547 1.364.547z" fill="#fff"/><rect x="2" y="2.667" width="464" height="52" rx="2" stroke="#DA212C" stroke-width="4"/><g clip-path="url(#prefix__clip0_7345_83056)"><path d="M25.387 66.723H7.5a4.513 4.513 0 00-4.5 4.5v17.944c0 2.475 2.025 4.5 4.5 4.5h17.887c2.476 0 4.5-2.025 4.5-4.5V71.223c0-2.475-1.968-4.5-4.5-4.5z" fill="#DA212C"/><path d="M25.387 68.692a2.52 2.52 0 012.532 2.53v17.945a2.52 2.52 0 01-2.532 2.53H7.5a2.52 2.52 0 01-2.531-2.53V71.223A2.52 2.52 0 017.5 68.692h17.887zm0-1.97H7.5a4.513 4.513 0 00-4.5 4.5v17.945c0 2.475 2.025 4.5 4.5 4.5h17.887c2.476 0 4.5-2.025 4.5-4.5V71.223c0-2.475-1.968-4.5-4.5-4.5z" fill="#9B1118"/><path d="M21.45 83.542l-3.488-3.432 3.544-3.487-1.519-1.519-3.487 3.544-3.488-3.544-1.518 1.519 3.543 3.487-3.43 3.432 1.462 1.518 3.43-3.43 3.432 3.43 1.519-1.518z" fill="#fff"/></g><path d="M39.16 88.667V72.96h1.825v15.706H39.16zm14.182 0V81.05c0-.96-.219-1.675-.655-2.148-.437-.473-1.121-.709-2.052-.709-1.232 0-2.134.333-2.707.999-.573.666-.86 1.765-.86 3.298v6.177h-1.783V76.893h1.45l.29 1.611h.086a3.606 3.606 0 011.537-1.342c.658-.323 1.392-.484 2.202-.484 1.418 0 2.485.344 3.2 1.032.717.68 1.075 1.772 1.075 3.276v7.68h-1.783zm8.285 0l-4.469-11.774h1.912l2.535 6.983c.573 1.632.91 2.692 1.01 3.18h.086c.079-.38.326-1.164.741-2.353.423-1.196 1.365-3.8 2.826-7.81h1.912l-4.47 11.774h-2.083zm15.934 0l-.355-1.676h-.086c-.587.737-1.174 1.239-1.762 1.504-.58.258-1.307.386-2.18.386-1.168 0-2.084-.3-2.75-.902-.66-.601-.989-1.457-.989-2.567 0-2.378 1.902-3.624 5.705-3.739l1.998-.064v-.73c0-.924-.2-1.605-.602-2.041-.394-.444-1.028-.666-1.901-.666-.981 0-2.091.3-3.33.902l-.548-1.364a8.4 8.4 0 011.901-.742 8.318 8.318 0 012.084-.268c1.404 0 2.442.311 3.115.934.68.623 1.02 1.623 1.02 2.998v8.035h-1.32zm-4.029-1.257c1.11 0 1.98-.305 2.61-.913.638-.609.957-1.461.957-2.557v-1.063l-1.784.075c-1.418.05-2.442.272-3.072.666-.623.386-.934.992-.934 1.815 0 .645.193 1.135.58 1.472.394.337.941.505 1.643.505zM84.6 88.667h-1.784V71.952H84.6v16.715zm5.814 0h-1.783V76.893h1.783v11.774zm-1.933-14.964c0-.408.1-.706.3-.892.2-.193.451-.29.752-.29.287 0 .534.097.741.29.208.193.312.49.312.892 0 .4-.104.702-.312.902a1.05 1.05 0 01-.74.29c-.302 0-.552-.096-.753-.29-.2-.2-.3-.501-.3-.902zm13.978 13.385h-.097c-.823 1.196-2.055 1.794-3.695 1.794-1.54 0-2.74-.527-3.599-1.58-.852-1.052-1.278-2.55-1.278-4.49 0-1.94.43-3.448 1.29-4.522.859-1.075 2.054-1.612 3.587-1.612 1.597 0 2.822.58 3.674 1.74h.139l-.075-.848-.043-.827v-4.791h1.784v16.715h-1.451l-.236-1.58zm-3.566.3c1.217 0 2.098-.33 2.642-.988.552-.666.827-1.737.827-3.212v-.376c0-1.668-.279-2.857-.838-3.566-.551-.716-1.435-1.075-2.653-1.075-1.045 0-1.848.409-2.406 1.225-.552.81-.827 1.955-.827 3.438 0 1.504.275 2.639.827 3.405.551.766 1.36 1.15 2.428 1.15zm17.354 1.279h-1.826V72.96h8.755v1.623h-6.929v5.747h6.51v1.622h-6.51v6.714zm14.494.215c-1.74 0-3.115-.53-4.125-1.59-1.002-1.06-1.504-2.532-1.504-4.415 0-1.898.466-3.406 1.397-4.523.938-1.117 2.195-1.676 3.77-1.676 1.476 0 2.643.487 3.502 1.461.86.967 1.289 2.245 1.289 3.835v1.128h-8.11c.036 1.382.383 2.431 1.042 3.148.666.716 1.601 1.074 2.804 1.074 1.267 0 2.52-.265 3.759-.795v1.59a9.11 9.11 0 01-1.794.58c-.558.122-1.235.183-2.03.183zm-.483-10.71c-.946 0-1.701.308-2.267.923-.558.616-.888 1.468-.988 2.557h6.155c0-1.124-.25-1.984-.752-2.578-.501-.602-1.217-.903-2.148-.903zm13.087 10.71c-1.741 0-3.116-.53-4.125-1.59-1.003-1.06-1.504-2.532-1.504-4.415 0-1.898.465-3.406 1.396-4.523.938-1.117 2.195-1.676 3.771-1.676 1.475 0 2.642.487 3.502 1.461.859.967 1.289 2.245 1.289 3.835v1.128h-8.111c.036 1.382.384 2.431 1.042 3.148.666.716 1.601 1.074 2.804 1.074 1.268 0 2.521-.265 3.76-.795v1.59a9.11 9.11 0 01-1.794.58c-.559.122-1.235.183-2.03.183zm-.484-10.71c-.945 0-1.701.308-2.266.923-.559.616-.888 1.468-.989 2.557h6.156c0-1.124-.251-1.984-.752-2.578-.502-.602-1.218-.903-2.149-.903zm16.127 8.916h-.096c-.824 1.196-2.056 1.794-3.696 1.794-1.539 0-2.739-.527-3.598-1.58-.853-1.052-1.279-2.55-1.279-4.49 0-1.94.43-3.448 1.289-4.522.86-1.075 2.056-1.612 3.588-1.612 1.597 0 2.822.58 3.674 1.74h.14l-.075-.848-.043-.827v-4.791h1.783v16.715h-1.45l-.237-1.58zm-3.566.3c1.217 0 2.098-.33 2.642-.988.552-.666.828-1.737.828-3.212v-.376c0-1.668-.28-2.857-.838-3.566-.552-.716-1.436-1.075-2.654-1.075-1.045 0-1.847.409-2.406 1.225-.551.81-.827 1.955-.827 3.438 0 1.504.276 2.639.827 3.405.552.766 1.361 1.15 2.428 1.15zM170.195 76.7c1.547 0 2.747.53 3.599 1.59.859 1.052 1.289 2.546 1.289 4.48 0 1.933-.433 3.437-1.3 4.51-.859 1.068-2.055 1.602-3.588 1.602-.766 0-1.468-.14-2.105-.42a4.005 4.005 0 01-1.59-1.31h-.129l-.376 1.515h-1.278V71.952h1.783v4.06c0 .91-.029 1.726-.086 2.45h.086c.831-1.175 2.062-1.762 3.695-1.762zm-.257 1.493c-1.218 0-2.095.35-2.632 1.053-.537.694-.806 1.869-.806 3.523 0 1.654.276 2.84.827 3.556.552.709 1.436 1.063 2.653 1.063 1.096 0 1.913-.397 2.45-1.192.537-.802.805-1.952.805-3.448 0-1.533-.268-2.675-.805-3.427-.537-.752-1.368-1.128-2.492-1.128zm15.761 10.474l-.354-1.676h-.086c-.587.737-1.175 1.239-1.762 1.504-.58.258-1.307.386-2.181.386-1.167 0-2.084-.3-2.75-.902-.658-.601-.988-1.457-.988-2.567 0-2.378 1.901-3.624 5.704-3.739l1.998-.064v-.73c0-.924-.2-1.605-.601-2.041-.394-.444-1.028-.666-1.902-.666-.981 0-2.091.3-3.33.902l-.548-1.364a8.394 8.394 0 011.902-.742 8.312 8.312 0 012.084-.268c1.403 0 2.442.311 3.115.934.68.623 1.021 1.623 1.021 2.998v8.035h-1.322zm-4.028-1.257c1.11 0 1.98-.305 2.61-.913.638-.609.956-1.461.956-2.557v-1.063l-1.783.075c-1.418.05-2.442.272-3.072.666-.623.386-.935.992-.935 1.815 0 .645.194 1.135.58 1.472.394.337.942.505 1.644.505zm13.989 1.472c-1.704 0-3.026-.523-3.964-1.569-.931-1.053-1.396-2.539-1.396-4.458 0-1.97.472-3.491 1.418-4.565.952-1.075 2.306-1.612 4.06-1.612.566 0 1.132.061 1.698.183.565.122 1.009.265 1.332.43l-.548 1.514a8.016 8.016 0 00-1.289-.386 5.585 5.585 0 00-1.236-.162c-2.392 0-3.588 1.526-3.588 4.577 0 1.446.291 2.556.871 3.33.587.773 1.453 1.16 2.599 1.16.981 0 1.987-.211 3.019-.634v1.58c-.788.407-1.78.612-2.976.612zm7.791-6.242c.308-.437.777-1.01 1.407-1.719l3.803-4.028h2.116l-4.769 5.017 5.102 6.757h-2.159l-4.157-5.565-1.343 1.16v4.405h-1.762V71.952h1.762v8.862c0 .394-.028 1.003-.086 1.826h.086z" fill="#fff"/><defs><clipPath id="prefix__clip0_7345_83056"><path fill="#fff" transform="translate(3 66.667)" d="M0 0h27v27H0z"/></clipPath></defs></svg>
